assets/Mountain/Flat/mountain_flat.svg

<svg width="32" height="32" viewBox="0 0 32 32" fill="none" xmlns="http://www.w3.org/2000/svg">
<path d="M8.97695 9.81822C7.68369 9.81822 7.53001 10.5467 7.61483 10.9109V25.3158L24.7324 27.2146L30.0002 22.5V15.0422L23.1876 8.26566L22.8596 8.02197L15.5002 9L12.4142 8.02197C12.2033 8.15625 11.951 8.32512 11.8094 8.46545C10.993 9.27463 10.3546 9.81822 8.97695 9.81822Z" fill="#8C5543"/>
<path d="M13.6198 9.31063C13.035 9.08884 12.4462 8.80135 11.8037 8.47407C12.4581 7.81966 14.0595 6.21636 15.2299 5.03847C16.6928 3.5661 18.656 3.69821 19.9679 5.03847C20.2326 5.30884 20.5296 5.60931 20.8363 5.91774C18.5156 7.0625 16.3906 7.6875 13.6198 9.31063Z" fill="#CDC4D6"/>
<path d="M13.1558 9.12228C14.1001 9.52955 15.0007 9.7862 16.0606 9.7862C17.6085 9.7862 18.8166 9.19163 19.4207 8.87073C20.0247 8.54982 21.0818 8.2006 21.9973 8.2006C22.7003 8.2006 23.0885 8.25855 23.2104 8.29102C22.8107 7.89374 22.362 7.44613 21.9279 7.00997C21.5508 6.63436 21.1458 6.22946 20.7593 5.84035C19.4543 4.68908 17.6172 4.64256 16.23 6.03871C15.2344 7.04072 13.9269 8.35058 13.1558 9.12228Z" fill="#F4F4F4"/>
<path d="M5.96834 11.2402C5.07024 12.3299 2.95313 14.8594 2.00684 15.9879V22.5L16 27.8125L22.9724 25.3105L15.8325 18.1406C14.7667 17.0629 13.3627 16.2097 11.7162 16.2097C9.99483 16.2097 8.99195 14.7428 8.99195 13.0065C8.99195 10.9666 12.3886 10.1728 13.1604 9.12524C12.4433 8.81133 12.1057 8.64478 11.8209 8.46558C10.6252 9.68774 9.79822 9.78931 9.29321 9.78931C8.96166 9.78931 7.59646 9.61208 5.96834 11.2402Z" fill="#7D4533"/>
<path d="M11.0125 23.0202C7.06082 21.6581 4.12549 21.9275 2 22.4664V29.9955H30V22.4609C26.8267 23.8679 23.4212 25.0261 20.0084 25.0261C16.5956 25.0261 14.9641 24.3824 11.0125 23.0202Z" fill="#00D26A"/>
</svg>

<svg xmlns="http://www.w3.org/2000/svg" width="32" height="32" fill="none"><path fill="#8C5543" d="M8.977 9.818c-1.293 0-1.447.729-1.362 1.093v14.405l17.117 1.899L30 22.5v-7.458l-6.812-6.776-.328-.244L15.5 9l-3.086-.978c-.21.134-.463.303-.605.443-.816.81-1.454 1.353-2.832 1.353Z"/><path fill="#CDC4D6" d="M13.62 9.31c-.585-.221-1.174-.509-1.816-.836.654-.654 2.255-2.258 3.426-3.436 1.463-1.472 3.426-1.34 4.738 0l.868.88c-2.32 1.144-4.445 1.77-7.216 3.393Z"/><path fill="#F4F4F4" d="M13.156 9.122c.944.408 1.845.664 2.905.664 1.547 0 2.756-.594 3.36-.915.604-.321 1.66-.67 2.576-.67.703 0 1.091.058 1.213.09-.4-.397-.848-.845-1.282-1.281-.377-.376-.782-.78-1.169-1.17-1.305-1.15-3.142-1.197-4.529.199-.996 1.002-2.303 2.312-3.074 3.083Z"/><path fill="#7D4533" d="M5.968 11.24c-.898 1.09-3.015 3.62-3.961 4.748V22.5L16 27.813l6.972-2.502-7.14-7.17c-1.065-1.078-2.47-1.931-4.116-1.931-1.721 0-2.724-1.467-2.724-3.204 0-2.04 3.397-2.833 4.168-3.88-.717-.315-1.054-.481-1.34-.66-1.195 1.222-2.022 1.323-2.527 1.323-.331 0-1.697-.177-3.325 1.451Z"/><path fill="#00D26A" d="M11.012 23.02C7.061 21.658 4.125 21.927 2 22.466v7.53h28V22.46c-3.173 1.407-6.579 2.565-9.992 2.565-3.412 0-5.044-.644-8.995-2.006Z"/></svg>
